X:782
M:C|
L:1/8
K:A Minor
g>be>g d<GB<G:|
|:a<A c>B A>E A2|c>BA>e c<Ae<A|1 a<A c>B A<E A2|g>be>g d<gB<G:|2
g<be<g d>gB>g|e>gd>g B<Gd<B||

